X: 138025
Q: "Irish Jig."
M: 6/8
L: 1/8
K: A
|:\
|:\
cde efe | efe edc | def fgf | fgf fed |\
cde efe | efe efg | agf edc | BcA GFE :|


